shader_type spatial;

void vertex() {
	POINT_SIZE = 10.0;
}

void fragment() {

}

//void light() {
//	// Called for every pixel for every light affecting the material.
//	// Uncomment to replace the default light processing function with this one.
//}
